dist/img/hand_1.svg

<svg width="54" height="77" viewBox="0 0 54 77" fill="none" xmlns="http://www.w3.org/2000/svg">
<path d="M36.6694 48.0696C31.7179 45.4034 30.655 45.9105 27.5282 43.8799C23.6886 41.3863 21.4341 38.1666 21.815 35.8813C21.9419 33.723 23.7956 30.6248 33.2415 33.9765C38.1929 35.7335 42.0017 35.2714 45.0488 38.9279C45.0488 38.9279 50.6525 44.5321 51.5238 45.4034C52.2856 46.1652 51.9047 48.4504 51.9047 48.4504C49.6194 59.1151 52.2854 72.0641 29.0517 74.3494C20.0375 75.3651 2.08714 71.9128 3.91538 53.021" stroke="#353535" stroke-width="3" stroke-linecap="round" stroke-linejoin="round"/>
<path d="M12.2949 48.8311C12.6758 54.1634 2.77288 55.306 2.01112 48.8311V32.4532C1.63023 27.8825 11.1523 25.9781 12.2949 32.4532M12.2949 32.4532V30.5488C11.9141 26.359 21.4361 24.0737 22.9596 30.5488M12.2949 32.4532V53.0207C13.0567 58.3531 22.3502 58.8101 22.9596 53.0207M22.9596 30.5488V29.0252C22.9596 23.6928 32.4817 22.1693 33.6243 29.0252M22.9596 30.5488V33.2149C20.522 34.7384 21.9439 38.4202 22.9596 40.0707V53.0207M33.6243 29.0252L34.0052 6.17232C34.0052 1.60178 43.5273 -0.302435 45.0508 6.17232V38.5472M33.6243 29.0252V33.9766M22.9596 53.0207V56.4487C23.3405 62.1622 33.6243 62.1622 33.6243 56.4487V47.3075" stroke="#353535" stroke-width="3" stroke-linecap="round" stroke-linejoin="round"/>
</svg>

<svg width="54" height="77" fill="none" xmlns="http://www.w3.org/2000/svg"><path d="M36.67 48.07c-4.952-2.667-6.015-2.16-9.142-4.19-3.84-2.494-6.094-5.713-5.713-7.999.127-2.158 1.98-5.256 11.427-1.904 4.95 1.757 8.76 1.294 11.807 4.95l6.475 6.476c.762.762.38 3.047.38 3.047-2.285 10.665.381 23.614-22.852 25.9-9.014 1.015-26.965-2.437-25.137-21.329" stroke="#353535" stroke-width="3" stroke-linecap="round" stroke-linejoin="round"/><path d="M12.295 48.831c.38 5.332-9.522 6.475-10.284 0V32.453c-.38-4.57 9.141-6.475 10.284 0m0 0V30.55c-.38-4.19 9.141-6.475 10.665 0m-10.665 1.904v20.568c.762 5.332 10.055 5.79 10.665 0m0-22.472v-1.524c0-5.332 9.522-6.856 10.664 0M22.96 30.55v2.666c-2.438 1.523-1.016 5.205 0 6.856v12.95m10.664-23.996l.381-22.853c0-4.57 9.522-6.474 11.046 0v32.375m-11.427-9.522v4.952M22.96 53.02v3.428c.38 5.713 10.664 5.713 10.664 0v-9.142" stroke="#353535" stroke-width="3" stroke-linecap="round" stroke-linejoin="round"/></svg>
